app/assets/images/heroicons/outline/hand-thumb-down.svg

<svg width="24" height="24" viewBox="0 0 24 24" fill="none" xmlns="http://www.w3.org/2000/svg">
<path d="M7.49809 15.25H4.37227C3.34564 15.25 2.4267 14.556 2.31801 13.5351C2.27306 13.1129 2.25 12.6841 2.25 12.25C2.25 9.40238 3.24188 6.78642 4.899 4.72878C5.2866 4.24749 5.88581 4 6.50377 4L10.5198 4C11.0034 4 11.4839 4.07798 11.9428 4.23093L15.0572 5.26908C15.5161 5.42203 15.9966 5.5 16.4803 5.5L17.7745 5.5M7.49809 15.25C8.11638 15.25 8.48896 15.974 8.22337 16.5323C7.75956 17.5074 7.5 18.5984 7.5 19.75C7.5 20.9926 8.50736 22 9.75 22C10.1642 22 10.5 21.6642 10.5 21.25V20.6166C10.5 20.0441 10.6092 19.4769 10.8219 18.9454C11.1257 18.1857 11.7523 17.6144 12.4745 17.2298C13.5883 16.6366 14.5627 15.8162 15.3359 14.8303C15.8335 14.1958 16.5611 13.75 17.3674 13.75H17.7511M7.49809 15.25H9.7M17.7745 5.5C17.7851 5.55001 17.802 5.59962 17.8258 5.6478C18.4175 6.84708 18.75 8.19721 18.75 9.625C18.75 11.1117 18.3895 12.5143 17.7511 13.75M17.7745 5.5C17.6975 5.13534 17.9575 4.75 18.3493 4.75H19.2571C20.1458 4.75 20.9701 5.26802 21.2294 6.11804C21.5679 7.22737 21.75 8.40492 21.75 9.625C21.75 11.1775 21.4552 12.6611 20.9185 14.0229C20.6135 14.797 19.8327 15.25 19.0006 15.25H17.9479C17.476 15.25 17.2027 14.6941 17.4477 14.2907C17.5548 14.1144 17.6561 13.934 17.7511 13.75" stroke="#0F172A" stroke-width="1.5" stroke-linecap="round" stroke-linejoin="round"/>
</svg>

<svg xmlns="http://www.w3.org/2000/svg" fill="none" viewBox="0 0 24 24" stroke-width="1.5" stroke="currentColor" aria-hidden="true" data-slot="icon">
  <path stroke-linecap="round" stroke-linejoin="round" d="M7.498 15.25H4.372c-1.026 0-1.945-.694-2.054-1.715a12.137 12.137 0 0 1-.068-1.285c0-2.848.992-5.464 2.649-7.521C5.287 4.247 5.886 4 6.504 4h4.016a4.5 4.5 0 0 1 1.423.23l3.114 1.04a4.5 4.5 0 0 0 1.423.23h1.294M7.498 15.25c.618 0 .991.724.725 1.282A7.471 7.471 0 0 0 7.5 19.75 2.25 2.25 0 0 0 9.75 22a.75.75 0 0 0 .75-.75v-.633c0-.573.11-1.14.322-1.672.304-.76.93-1.33 1.653-1.715a9.04 9.04 0 0 0 2.86-2.4c.498-.634 1.226-1.08 2.032-1.08h.384m-10.253 1.5H9.7m8.075-9.75c.01.05.027.1.05.148.593 1.2.925 2.55.925 3.977 0 1.487-.36 2.89-.999 4.125m.023-8.25c-.076-.365.183-.75.575-.75h.908c.889 0 1.713.518 1.972 1.368.339 1.11.521 2.287.521 3.507 0 1.553-.295 3.036-.831 4.398-.306.774-1.086 1.227-1.918 1.227h-1.053c-.472 0-.745-.556-.5-.96a8.95 8.95 0 0 0 .303-.54"/>
</svg>
